X:1
T:Title
%%score { ( 1 3 ) | ( 2 4 ) }
L:1/8
Q:1/4=100
M:6/8
K:F
V:1 treble nm="Grand Piano"
V:3 treble 
V:2 bass 
V:4 bass 
V:1
 A_A=A B2 F | A3 .A3 | c=Bc d2 A | c6 | [GB][^FA][GB] [Be]2 [Ed] | c3 .A3 | FEF [=B,FA]2 [B,FG] | %7
w: William~J.~Kirkpatrick * * * *|||||||
 [EG]2- [DEG-] [EG-][FG]G | A_A=A B2 F | A3 .A3 | c=Bc d2 A | c6 | [Ec][Fd][Ge] [Af]2 [Fc] | %13
w: ||||||
 [Fe]3 .[Fd]3 | [Fc][CFA][A,F] [B,EG]2 [CEA] | [A,CF]6 | [CFA][CFA][CFA] [^CGA]2 [CGA] | %17
w: ||||
 [DFA]3 .[A,F]3 | [Ec][Ec][Ec] [Ec]2 [Ec] | [Fc]6 | [Bc][Bd][Be] f2 c | e3 .d3 | ccc B2 A | %23
w: ||||||
 [CEG]6 | [CFA][CFA][CFA] [^CGA]2 [CGA] | [DFA]3 .[A,F]3 | [Ec][Ec][Ec] [Ec]2 [Ec] | [Fc]6 | %28
w: |||||
 [Bc][Bd][Be] [Ff]2 [Fc] |[M:7/8] [Fe]3 [Fd]3 z | %30
w: ||
[M:3/4] [Fc][CFA] [A,F] [B,EG]2 [CEA][Q:1/4=97][Q:1/4=94][Q:1/4=91][Q:1/4=88][Q:1/4=84][Q:1/4=81][Q:1/4=78] | %31
w: |
 [F,F]2- [F,-DF-] [F,CF]3 |] %32
w: |
V:2
 [F,CF][F,=B,F][F,CF] [F,DF]2 [F,^C] | [F,CF]3 .[F,CF]3 | [F,A,F][F,_A,F][F,=A,F] [F,B,F]2 [F,CF] | %3
 [G,B,E]6 | [C,C][C,C][C,C] [C,G,]2 [C,B,] | [F,A,F]3 .[F,A,C]3 | [D,A,D][D,A,D][D,A,D] G,,2 G,, | %7
 z[K:treble] C2- C2 z | [F,CF][F,=B,F][F,CF][K:bass] [F,DF]2 [F,^C] | [F,CF]3 .[F,CF]3 | %10
 [F,A,F][F,_A,F][F,=A,F] [F,B,F]2 [F,CF] | [G,B,E]6 | [C,G,][C,G,][C,C] [F,C]2 [F,A,] | %13
 [B,,C]3 .[B,,B,]3 | [C,A,]C,C, C,2 C, | F,6 | F,F,F, E,2 E, | D,3 .D,3 | %18
 [C,B,][C,A,][C,G,] [C,G,]2 [C,B,] | [F,A,]6 | [G,E][G,E][G,C] [A,CA]2 [A,CF] | [B,CF]3 .[B,F]3 | %22
 [A,CF][A,CF][A,CF][K:bass] [G,CE]2 [F,CF] | C,6 | F,F,F, E,2 E, | D,3 .D,3 | %26
 [C,B,][C,A,][C,G,] [C,G,]2 [C,B,] | [F,A,]6 | [G,E][G,E][G,C] [A,C]2 [F,A,] | %29
[M:7/8] [B,,C]3 [B,,B,]3 z |[M:3/4] [C,A,]C, C, C,2 C, | z C B, .A,3 |] %32
V:3
 x6 | x6 | x6 | x6 | x6 | x6 | x6 | .C3 z3 | x6 | x6 | x6 | x6 | x6 | x6 | x6 | x6 | x6 | x6 | x6 | %19
 x6 | x6 | x6 | x6 | x6 | x6 | x6 | x6 | x6 | x6 |[M:7/8] x7 |[M:3/4] x6 | A,2 z2 z2 |] %32
V:4
 x6 | x6 | x6 | x6 | x6 | x6 | x6 | C,6[K:treble] | x3[K:bass] x3 | x6 | x6 | x6 | x6 | x6 | x6 | %15
 x6 | x6 | x6 | x6 | x6 | x6 | x6 | x3[K:bass] x3 | x6 | x6 | x6 | x6 | x6 | x6 |[M:7/8] x7 | %30
[M:3/4] x6 | F,,6 |] %32

